!!!COM: Chambers, Walter Garnet Picart
!!!CDT: b. 1908
!!!OTL: National Anthem, Antigua and Barbuda
!!!ENC: Davis, Matthew J.
!!Vocal Line Only
**kern
*clefG2
*k[b-e-]
*B-:
*M4/4
=1-
4.b-
8b-
4dd
4cc
=2
4.ee-
8dd
4cc
4b-
=3
4dd
4cc
4b-
4cc
=4
4a
4g
2f
=5
4b-
4f
4g
4g
=6
4.cc
8b-
4a
4f
=7
4b-
4cc
4a
4b-
=8
4cc
4en
2f
=9
4.ff
8ee-
4dd
4b-
=10
4.ee-
8ee-
(8ee-
8dd)
4cc
=11
4dd
4dd
4cc
4b-
=12
4cc
4g
2a
=13
4b-
4f
(8.g
16g
4g
=14
4.cc
8g
4b-
4a
=15
4ff
4dd
4b-
4ee-
=16
4.cc
8b-
2b-
==|!
*-
